img/recycle.svg

<svg width="48" height="48" fill="none" xmlns="http://www.w3.org/2000/svg"><g clip-path="url(#clip0)"><path d="M33.295 48c11.019 0 17.307-12.625 13.672-25.747-3.634-13.122-13.001-4.927-20.3-17.027C18.654-8.064 1.387 6.339 0 22.253.53 30.835 7.93 48 33.295 48z" fill="#FFDD76"/><path d="M24 12c-1.17 0-2.216.78-2.916 2.01l-2.656 4.65 1.617.96L22.67 15c.473-.833.95-1.08 1.328-1.08.38 0 .856.247 1.328 1.08l2.887 5.07-1.472.93 4.619 2.88v-5.76l-1.56.96-2.886-5.07C26.215 12.78 25.17 12 24 12zm-5.601 8.61l-4.619 2.88 1.415.87-2.57 4.53c-.696 1.226-.851 2.584-.26 3.63.592 1.046 1.79 1.56 3.176 1.56h5.687v-1.92h-5.687c-.956 0-1.41-.315-1.588-.63-.176-.315-.212-.847.26-1.68l2.54-4.5 1.646 1.02v-5.76zm14.723 4.41l-1.56.99 2.224 3.84c.476.836.436 1.365.26 1.68-.177.315-.632.63-1.588.63h-4.763v-1.92l-4.62 2.88 4.62 2.88v-1.92h4.763c1.386 0 2.584-.514 3.175-1.56.592-1.046.44-2.4-.26-3.63v-.03l-2.251-3.84z" fill="#63522B"/></g><defs><clipPath id="clip0"><path fill="#fff" d="M0 0h48v48H0z"/></clipPath></defs></svg>

<svg width="48" height="48" viewBox="0 0 48 48" fill="none" xmlns="http://www.w3.org/2000/svg">
<g clip-path="url(#clip0)">
<path d="M33.295 48C44.314 48 50.602 35.375 46.967 22.253C43.333 9.13096 33.966 17.326 26.667 5.22596C18.654 -8.06404 1.387 6.33896 0 22.253C0.53 30.835 7.93 48 33.295 48Z" fill="#FFDD76"/>
<path d="M24 12C22.83 12 21.784 12.78 21.084 14.01L18.428 18.66L20.045 19.62L22.67 15C23.143 14.167 23.62 13.92 23.998 13.92C24.378 13.92 24.854 14.167 25.326 15L28.213 20.07L26.741 21L31.36 23.88V18.12L29.8 19.08L26.914 14.01C26.215 12.78 25.17 12 24 12ZM18.399 20.61L13.78 23.49L15.195 24.36L12.625 28.89C11.929 30.116 11.774 31.474 12.365 32.52C12.957 33.566 14.155 34.08 15.541 34.08H21.228V32.16H15.541C14.585 32.16 14.131 31.845 13.953 31.53C13.777 31.215 13.741 30.683 14.213 29.85L16.753 25.35L18.399 26.37V20.61ZM33.122 25.02L31.562 26.01L33.786 29.85C34.262 30.686 34.222 31.215 34.046 31.53C33.869 31.845 33.414 32.16 32.458 32.16H27.695V30.24L23.075 33.12L27.695 36V34.08H32.458C33.844 34.08 35.042 33.566 35.633 32.52C36.225 31.474 36.073 30.12 35.373 28.89V28.86L33.122 25.02Z" fill="#63522B"/>
</g>
<defs>
<clipPath id="clip0">
<rect width="48" height="48" fill="white"/>
</clipPath>
</defs>
</svg>
